X: 3002
T: Battery, The
R: reel
M: 4/4
K: Edorian
|:gf|eBGF EGFE|Fddc d2dB|e2eg fBBc|dBcA Bcdf|
eBAB GBAF|Eeed e2f/g/a|bgaf eBGF|Eeed e2:|
|:ef|gafg edfg|eBBA Bcdf|gafg efga|b2ab gafa|
g2fg eBBA|Bcdf e2ef|gfga bfgf|edfg e2:|

